X:93
T:RVW2/2/93 The Birds In The Spring
C:Isaac Longhurst, Forest Green, Surrey, May 1904
L:1/4
Q:1/4=100
M:3/4
I:linebreak $
K:G
"^(" D | G G A | G2 A | B d c | (B A) G | G B d | d B G |$ d c B | (B A) (B/c/) | d c e | d2 B/B/ | 
w: On|mor- ning in|May by|chance I did|rove _ I|sat my- self|down by the|side of a|grove _ and _|there I did|hear the sweet|
c d B | (B A) B | c/c/ d e |$ !fermata!d2 D | G/G/ G A | (G !fermata!D) d | g/g/ d e | d3/2 e/ c | 
w: night- in- gale|sing _ I|ne- ver heard so|sweet, I|ne- ver heard so|sweet, _ I|ne- ver heard so|sweet as the|
B3/2 c/ A | G2 |] 
w: birds in the|spring.|



